projects/ccf-eui/src/assets/icons/organ-icons/organ-icon-knee.svg

<svg width="64" height="64" viewBox="0 0 64 64" fill="currentColor" xmlns="http://www.w3.org/2000/svg">
<g clip-path="url(#clip0_1795_272)">
<path d="M46.3574 19.4347C44.8001 17.0667 35.2214 12.4587 24.4481 8.53332C15.9147 5.50399 14.2934 4.43732 4.09607 4.37332V15.04C4.09607 15.04 25.0027 18.432 27.3281 18.944C29.6534 19.456 32.9174 17.984 35.1147 19.328C37.3121 20.672 37.9307 21.9093 37.0347 26.0693C36.1387 30.2293 33.3867 32.1493 31.1894 31.5947C27.1361 30.6133 27.8614 25.0667 26.4961 24.576C23.6587 23.5733 4.09607 20.3093 4.09607 20.3093V36.928C17.3867 33.6853 23.2961 35.2427 23.2961 35.2427C23.2961 35.2427 18.3254 45.9093 17.9201 52.1173C17.6891 54.6671 17.8619 57.2374 18.4321 59.7333H27.8401C27.8401 59.7333 30.6347 45.2267 30.2934 41.792C29.9521 38.3573 26.2827 33.664 26.5387 32.384C26.7947 31.104 28.4161 34.0267 32.6401 34.0267C35.9467 34.0267 37.1627 31.0827 38.4001 31.6587C39.6374 32.2347 36.9921 37.5253 36.5441 40.6827C36.0961 43.84 33.6001 59.7333 33.6001 59.7333H40.5334C42.4766 52.4199 43.7969 44.955 44.4801 37.4187C44.9921 33.792 49.0667 23.3387 46.3574 19.4347ZM41.6641 28.48C40.0427 28.672 40.7041 25.2373 40.3841 23.3387C40.0641 21.44 38.5494 19.2853 39.9574 19.072C41.02 19.1073 42.0312 19.5381 42.7928 20.28C43.5543 21.0218 44.0115 22.0213 44.0747 23.0827C44.0961 25.728 43.2854 28.2667 41.6641 28.48Z" />
</g>
<defs>
<clipPath id="clip0_1795_272">
<rect width="64" height="64" />
</clipPath>
</defs>
</svg>

<svg xmlns="http://www.w3.org/2000/svg" width="64" height="64" fill="currentColor" viewBox="0 0 64 64"><g clip-path="url(#a)"><path d="M46.357 19.435C44.8 17.067 35.221 12.459 24.448 8.533c-8.533-3.029-10.155-4.096-20.352-4.16V15.04s20.907 3.392 23.232 3.904 5.59-.96 7.787.384 2.816 2.581 1.92 6.741-3.648 6.08-5.846 5.526c-4.053-.982-3.328-6.528-4.693-7.019-2.837-1.003-22.4-4.267-22.4-4.267v16.619c13.29-3.243 19.2-1.685 19.2-1.685s-4.97 10.666-5.376 16.874c-.23 2.55-.058 5.12.512 7.616h9.408s2.795-14.506 2.453-17.941c-.34-3.435-4.01-8.128-3.754-9.408s1.877 1.643 6.101 1.643c3.307 0 4.523-2.944 5.76-2.368s-1.408 5.866-1.856 9.024-2.944 19.05-2.944 19.05h6.933A134 134 0 0 0 44.48 37.42c.512-3.627 4.587-14.08 1.877-17.984m-4.693 9.045c-1.621.192-.96-3.243-1.28-5.141s-1.835-4.054-.427-4.267a4.267 4.267 0 0 1 4.118 4.01c.021 2.646-.79 5.185-2.41 5.398"/></g><defs><clipPath id="a"><path d="M0 0h64v64H0z"/></clipPath></defs></svg>
